www/assets/icons/sim_card.svg

<svg xmlns="http://www.w3.org/2000/svg" width="24" height="24" viewBox="0 0 24 24" fill='currentColor'><path d="M19.99 4c0-1.1-.89-2-1.99-2h-8L4 8v12c0 1.1.9 2 2 2h12.01c1.1 0 1.99-.9 1.99-2zM9 19H7v-2h2zm8 0h-2v-2h2zm-8-4H7v-4h2zm4 4h-2v-4h2zm0-6h-2v-2h2zm4 2h-2v-4h2z"/></svg>

<svg width="24" height="24" viewBox="0 0 24 24" xmlns="http://www.w3.org/2000/svg" fill='currentColor'><path d="M19.99 4C19.99 2.9 19.1 2 18 2H10L4 8V20C4 21.1 4.9 22 6 22H18.01C19.11 22 20 21.1 20 20L19.99 4ZM9 19H7V17H9V19ZM17 19H15V17H17V19ZM9 15H7V11H9V15ZM13 19H11V15H13V19ZM13 13H11V11H13V13ZM17 15H15V11H17V15Z"/></svg>
